X: 148
T: No_81_We_Will_Join_Them.krn
N: Derived from No_81_We_Will_Join_Them.krn
%%abc-version 2.0
%%abcx-abcm2ps-target-version 5.9.1 (29 Sep 2008)
%%abc-creator hum2abc beta
%%abcx-conversion-date 2019/03/15 08:37:56
%%humdrum-veritas 1789920653
%%humdrum-veritas-data 3197768135
%%linebreak <none>
%%barnumbers 0
L: 1/8
M: 2/4
K: Bb clef=bass
F,D/D/ [I:setbarnb 1]| 
(D3/B,/) B,3/F,/ | 
B,3C | 
C3/B,/ (3CB,B, | 
B,F, z B,/B,/ | 
C2(3CB,B, | 
B,2(3B,G,B, ||  
[M:3/4](3B,F,F, (3G,F,F, F,3/D,/ ||  
[M:2/4](3G,F,F, F,3/F,/ | 
D,2F,3/F,/ ||  
[M:3/4]F,3/D,/ F,3/F,/ F,//F,3//F,/F,/ | 
F,4-F, z :|]  



